X:1159
M:C
L:1/8
Q:1/2=66
K:D
e>e|a2 e>e   a2 e>e|a3  e dc`BA|d3     A     GF`ED |A2 A>A A2
z2 |a3  b/c/ g2 f2 |g2 a2 b2 z2|g3     a/g/  f2 e2 |f2 g2  a2

